X:116
T:Queen of Prussia’s delight,The. JJo.116
S:J.Jones MS,1801,N.Shrops.
N:repeat marks and barline missing at end of tune.
A:N Shropshire
Z:Neil Brookes 2006
M:2/4
L:1/8
Q:1/2=80
K:F
f2 c>d|c>d c>d|c>fa2|c>fa2|b2g>a|g>a g>a|g>fe>f|g>e c2::!
a>ff2|c>fA>c|F>A c>g|f>gg2|a>ff2|c>fA>c|F>A c>g|g>e[f2c2A2]:|

